blockchains/ethereum/assets/0xE48972fCd82a274411c01834e2f031D4377Fa2c0/logo.svg

<svg fill="none" height="250" viewBox="0 0 250 250" width="250" xmlns="http://www.w3.org/2000/svg" xmlns:xlink="http://www.w3.org/1999/xlink"><pattern id="a" height="1" patternContentUnits="objectBoundingBox" width="1"><image xlink:href="data:image/png;base64,iVBORw0KGgoAAAANSUhEUgAAAdkAAAF9CAYAAABIyhL6AAAACXBIWXMAAAsSAAALEgHS3X78AAAg"/></pattern><linearGradient id="b" gradientUnits="userSpaceOnUse" x1="151.403" x2="97.4341" y1="498.728" y2="-265.304"><stop offset=".3" stop-color="#17936f"/><stop offset=".41" stop-color="#14a073"/><stop offset=".63" stop-color="#0bc27e"/><stop offset=".79" stop-color="#04e087"/></linearGradient><clipPath id="c"><path d="m0 0h250v250h-250z"/></clipPath><g clip-path="url(#c)"><path d="m125.021 250.042c69.047 0 125.021-55.974 125.021-125.021 0-69.0471-55.974-125.021-125.021-125.021-69.0471 0-125.021 55.9739-125.021 125.021 0 69.047 55.9739 125.021 125.021 125.021z" fill="url(#b)"/><path d="m32.2568 40.5666h199.915v161.031h-199.915z" fill="url(#a)"/><path d="m212.046 123.373c-1.437 0-2.621 1.184-2.621 2.621 0 1.944-.042 3.761-.169 5.494-.38 3.635-1.563 6.847-3.17 8.496-1.437 1.606-3.93 1.732-5.536.253-.127-.127-.296-.253-.381-.422-2.493-2.79-3.254-8.961-2.705-13.568.127-1.437-.972-2.705-2.409-2.789-1.352-.127-2.578.845-2.789 2.198-.254 2.409-.254 4.818 0 7.185 0 .211-.043.422-.085.634-1.141 9.087-5.029 10.989-8.073 10.989-.972-.043-1.944-.212-2.831-.55l.169-.169c2.916-3.297 4.691-7.608 4.691-11.454 0-2.493-.718-4.649-2.113-6.213-1.099-1.268-3.086-2.747-6.551-2.747-2.874 0-5.495 1.479-6.974 3.931-2.325 3.635-2.536 9.002-.55 13.398.55 1.141 1.226 2.24 2.071 3.17-1.098.38-2.24.591-3.423.634-3.677 0-8.96-4.48-12.003-7.735 3.339-2.663 6.297-5.748 8.749-9.256.845-1.183.549-2.79-.634-3.635-1.184-.845-2.79-.549-3.635.634-2.452 3.55-5.537 6.636-9.045 9.172v-7.65c-.042-1.437-1.268-2.578-2.705-2.494-1.353.042-2.451 1.141-2.494 2.494l-.042 15.3c-.042-.042.254 7.312.634 7.65h.042c.381.38.888.592 1.395.676.169.042.38.042.549.042 1.438 0 2.621-1.183 2.621-2.62v-7.692c2.874 3.212 9.932 10.312 16.568 10.312 2.832 0 5.664-.718 8.115-2.113 2.282 1.31 4.818 2.029 7.439 2.113 4.987 0 8.833-2.747 11.158-7.692.296.465.634.888 1.014 1.31 1.733 2.029 4.269 3.17 6.932 3.17.465 0 1.606-.169 2.113-.676-.423.423-.676 1.775-.93 2.367-.38.803-.761 1.606-1.141 2.409-.803 1.606-1.691 3.128-2.705 4.607-1.987 3.001-4.353 5.79-7.016 8.199-5.875 5.284-12.933 8.242-20.626 9.637-4.015.718-8.115.93-12.172.676-4.184-.253-8.326-.845-12.426-1.733-8.284-1.733-16.484-4.522-24.599-7.692-4.691-1.817-9.383-3.804-14.074-5.833 2.451-2.282 4.861-4.649 7.143-7.1 3.254-3.508 6.34-7.143 9.171-10.989 2.917-3.889 5.537-7.988 7.862-12.257 2.409-4.396 4.395-9.003 5.917-13.737 1.606-4.987 2.536-10.143 2.789-15.3842.085-2.7049-.042-5.4522-.38-8.1572-.38-2.7472-.972-5.41-1.86-8.0304-1.69-5.1564-4.184-10.0169-7.438-14.3703-3.382-4.5646-7.693-8.3685-12.638-11.158-4.987-2.7896-10.481-4.4802-16.187-4.9451-1.395-.1268-2.748-.2113-4.1001-.2113-.6762 0-1.3525 0-2.0287.0422l-1.0144.0423c-.3381 0-.6762.0423-1.0566.0845-2.7895.2114-5.5791.7185-8.284 1.4793-5.3255 1.5638-10.3128 4.0575-14.7507 7.4387-4.1842 3.2122-7.9036 6.9316-11.0735 11.1581-1.5638 2.0288-2.9586 4.142-4.2688 6.3398-.6763 1.0989-1.268 2.1978-1.8597 3.339-.2959.5495-.5917 1.1412-.8876 1.7329l-.4226.9298-.2114.4649-.2535.5918c-1.8597 4.3956.2535 9.4674 4.6491 11.3271 4.2689 1.7751 9.1716-.0845 11.1581-4.2688l.2114-.4227.2113-.4226.2958-.5917c.2114-.4227.4227-.8031.634-1.2257.4227-.8453.9299-1.6484 1.437-2.4514 1.0144-1.6061 2.071-3.2122 3.2545-4.6915 2.24-2.9163 4.8182-5.5368 7.7345-7.7768 2.705-2.071 5.7481-3.5926 9.0026-4.5647 1.5638-.4649 3.2122-.7185 4.8182-.8453.2114 0 .4227-.0423.634-.0423l.6763-.0422c.4226 0 .8876-.0423 1.3102 0 .8876 0 1.7326.0422 2.5786.1268 3.254.2535 6.382 1.1834 9.213 2.7472 2.832 1.6061 5.326 3.7616 7.27 6.3398 2.113 2.8318 3.719 5.9594 4.818 9.2984.55 1.6061.93 3.2967 1.184 4.9873.253 1.7329.338 3.4658.296 5.1987-.127 3.6766-.761 7.3546-1.86 10.8626-1.183 3.761-2.663 7.354-4.522 10.82-3.889 7.227-8.665 13.947-14.202 20.033-3.55 3.973-7.3961 7.693-11.4535 11.116-2.071-.887-4.1843-1.775-6.3399-2.62-4.3956-1.818-8.8757-3.339-13.4404-4.607-2.5359-.676-5.0718-1.141-7.6923-1.437-1.4793-.127-2.9163-.169-4.3956-.127-1.6906.085-3.3389.38-4.9873.845-1.8597.55-3.6348 1.437-5.1986 2.621-1.6061 1.225-2.9586 2.705-4.0153 4.395-.9298 1.48-1.6483 3.128-2.1555 4.819-.4226 1.479-.7608 2.958-.9298 4.522-.1691 1.395-.2536 2.747-.2959 4.142-.0423 1.522.0845 3.043.2959 4.565.2536 1.775.7607 3.465 1.4793 5.114.803 1.902 1.9864 3.635 3.4657 5.072 1.5216 1.479 3.2967 2.62 5.2409 3.423 1.6907.676 3.5081 1.141 5.3255 1.31 3.0008.254 6.0439.085 9.0025-.591 5.41-1.142 10.0592-3.086 14.4548-5.284 4.3111-2.197 8.4531-4.691 12.426-7.438 1.0567-.719 2.1133-1.48 3.1699-2.283 6.8896 2.748 13.8636 5.495 21.0486 7.946 8.622 2.959 17.498 5.537 26.754 7.059 4.691.803 9.425 1.225 14.159 1.268 4.86.042 9.678-.465 14.412-1.564 9.679-2.198 18.386-7.439 24.894-14.92 3.128-3.592 5.791-7.565 7.989-11.792 1.902-3.677 3.634-7.439 4.776-11.538 1.098-3.973 1.521-8.327 1.944-12.426.127-1.057.169-2.156.169-3.213.042-.845.042-1.69.042-2.578-.127-1.31-1.268-2.493-2.747-2.536zm-35.461 17.836c-.803-.761-1.479-1.648-1.944-2.662-1.268-2.748-1.183-6.298.211-8.411.507-.93 1.522-1.522 2.578-1.522 1.184 0 2.071.338 2.621.93.676.803.803 1.944.803 2.79 0 3.719-1.817 6.762-4.269 8.875zm-111.327 26.67c-1.1412.211-2.3246.338-3.508.338-3.3812 0-4.5647-3.804-4.2266-6.086.2114-1.691.9722-3.297 2.1133-4.565 1.5638-1.564 3.8462-1.226 5.7904-.972 2.8318.423 5.6635 1.099 8.3685 2.029 1.3103.422 5.9172 1.986 6.4666 2.24-4.6492 2.958-9.5097 6.044-15.0042 7.016z" fill="#fff"/></g></svg>

<svg width="250" height="250" viewBox="0 0 250 250" fill="none" xmlns="http://www.w3.org/2000/svg" xmlns:xlink="http://www.w3.org/1999/xlink">
<g clip-path="url(#clip0_44_10038)">
<path d="M125.021 250.042C194.068 250.042 250.042 194.068 250.042 125.021C250.042 55.9739 194.068 0 125.021 0C55.9739 0 0 55.9739 0 125.021C0 194.068 55.9739 250.042 125.021 250.042Z" fill="url(#paint0_linear_44_10038)"/>
<rect x="32.2568" y="40.5666" width="199.915" height="161.031" fill="url(#pattern0)"/>
<path d="M212.046 123.373C210.609 123.373 209.425 124.557 209.425 125.994C209.425 127.938 209.383 129.755 209.256 131.488C208.876 135.123 207.693 138.335 206.086 139.984C204.649 141.59 202.156 141.716 200.55 140.237C200.423 140.11 200.254 139.984 200.169 139.815C197.676 137.025 196.915 130.854 197.464 126.247C197.591 124.81 196.492 123.542 195.055 123.458C193.703 123.331 192.477 124.303 192.266 125.656C192.012 128.065 192.012 130.474 192.266 132.841C192.266 133.052 192.223 133.263 192.181 133.475C191.04 142.562 187.152 144.464 184.108 144.464C183.136 144.421 182.164 144.252 181.277 143.914L181.446 143.745C184.362 140.448 186.137 136.137 186.137 132.291C186.137 129.798 185.419 127.642 184.024 126.078C182.925 124.81 180.938 123.331 177.473 123.331C174.599 123.331 171.978 124.81 170.499 127.262C168.174 130.897 167.963 136.264 169.949 140.66C170.499 141.801 171.175 142.9 172.02 143.83C170.922 144.21 169.78 144.421 168.597 144.464C164.92 144.464 159.637 139.984 156.594 136.729C159.933 134.066 162.891 130.981 165.343 127.473C166.188 126.29 165.892 124.683 164.709 123.838C163.525 122.993 161.919 123.289 161.074 124.472C158.622 128.022 155.537 131.108 152.029 133.644V125.994C151.987 124.557 150.761 123.416 149.324 123.5C147.971 123.542 146.873 124.641 146.83 125.994L146.788 141.294C146.746 141.252 147.042 148.606 147.422 148.944H147.464C147.845 149.324 148.352 149.536 148.859 149.62C149.028 149.662 149.239 149.662 149.408 149.662C150.846 149.662 152.029 148.479 152.029 147.042V139.35C154.903 142.562 161.961 149.662 168.597 149.662C171.429 149.662 174.261 148.944 176.712 147.549C178.994 148.859 181.53 149.578 184.151 149.662C189.138 149.662 192.984 146.915 195.309 141.97C195.605 142.435 195.943 142.858 196.323 143.28C198.056 145.309 200.592 146.45 203.255 146.45C203.72 146.45 204.861 146.281 205.368 145.774C204.945 146.197 204.692 147.549 204.438 148.141C204.058 148.944 203.677 149.747 203.297 150.55C202.494 152.156 201.606 153.678 200.592 155.157C198.605 158.158 196.239 160.947 193.576 163.356C187.701 168.64 180.643 171.598 172.95 172.993C168.935 173.711 164.835 173.923 160.778 173.669C156.594 173.416 152.452 172.824 148.352 171.936C140.068 170.203 131.868 167.414 123.753 164.244C119.062 162.427 114.37 160.44 109.679 158.411C112.13 156.129 114.54 153.762 116.822 151.311C120.076 147.803 123.162 144.168 125.993 140.322C128.91 136.433 131.53 132.334 133.855 128.065C136.264 123.669 138.25 119.062 139.772 114.328C141.378 109.341 142.308 104.185 142.561 98.9438C142.646 96.2389 142.519 93.4916 142.181 90.7866C141.801 88.0394 141.209 85.3766 140.321 82.7562C138.631 77.5998 136.137 72.7393 132.883 68.3859C129.501 63.8213 125.19 60.0174 120.245 57.2279C115.258 54.4383 109.764 52.7477 104.058 52.2828C102.663 52.156 101.31 52.0715 99.9579 52.0715C99.2817 52.0715 98.6054 52.0715 97.9292 52.1137L96.9148 52.156C96.5767 52.156 96.2386 52.1983 95.8582 52.2405C93.0687 52.4519 90.2791 52.959 87.5742 53.7198C82.2487 55.2836 77.2614 57.7773 72.8235 61.1585C68.6393 64.3707 64.9199 68.0901 61.75 72.3166C60.1862 74.3454 58.7914 76.4586 57.4812 78.6564C56.8049 79.7553 56.2132 80.8542 55.6215 81.9954C55.3256 82.5449 55.0298 83.1366 54.7339 83.7283L54.3113 84.6581L54.0999 85.123L53.8464 85.7148C51.9867 90.1104 54.0999 95.1822 58.4955 97.0419C62.7644 98.817 67.6671 96.9574 69.6536 92.7731L69.865 92.3504L70.0763 91.9278L70.3721 91.3361C70.5835 90.9134 70.7948 90.533 71.0061 90.1104C71.4288 89.2651 71.936 88.462 72.4431 87.659C73.4575 86.0529 74.5141 84.4468 75.6976 82.9675C77.9376 80.0512 80.5158 77.4307 83.4321 75.1907C86.1371 73.1197 89.1802 71.5981 92.4347 70.626C93.9985 70.1611 95.6469 69.9075 97.2529 69.7807C97.4643 69.7807 97.6756 69.7384 97.8869 69.7384L98.5632 69.6962C98.9858 69.6962 99.4508 69.6539 99.8734 69.6962C100.761 69.6962 101.606 69.7384 102.452 69.823C105.706 70.0765 108.834 71.0064 111.665 72.5702C114.497 74.1763 116.991 76.3318 118.935 78.91C121.048 81.7418 122.654 84.8694 123.753 88.2084C124.303 89.8145 124.683 91.5051 124.937 93.1957C125.19 94.9286 125.275 96.6615 125.233 98.3944C125.106 102.071 124.472 105.749 123.373 109.257C122.19 113.018 120.71 116.611 118.851 120.077C114.962 127.304 110.186 134.024 104.649 140.11C101.099 144.083 97.2529 147.803 93.1955 151.226C91.1245 150.339 89.0112 149.451 86.8556 148.606C82.46 146.788 77.9799 145.267 73.4152 143.999C70.8793 143.323 68.3434 142.858 65.7229 142.562C64.2436 142.435 62.8066 142.393 61.3273 142.435C59.6367 142.52 57.9884 142.815 56.34 143.28C54.4803 143.83 52.7052 144.717 51.1414 145.901C49.5353 147.126 48.1828 148.606 47.1261 150.296C46.1963 151.776 45.4778 153.424 44.9706 155.115C44.548 156.594 44.2098 158.073 44.0408 159.637C43.8717 161.032 43.7872 162.384 43.7449 163.779C43.7026 165.301 43.8294 166.822 44.0408 168.344C44.2944 170.119 44.8015 171.809 45.5201 173.458C46.3231 175.36 47.5065 177.093 48.9858 178.53C50.5074 180.009 52.2825 181.15 54.2267 181.953C55.9174 182.629 57.7348 183.094 59.5522 183.263C62.553 183.517 65.5961 183.348 68.5547 182.672C73.9647 181.53 78.6139 179.586 83.0095 177.388C87.3206 175.191 91.4626 172.697 95.4355 169.95C96.4922 169.231 97.5488 168.47 98.6054 167.667C105.495 170.415 112.469 173.162 119.654 175.613C128.276 178.572 137.152 181.15 146.408 182.672C151.099 183.475 155.833 183.897 160.567 183.94C165.427 183.982 170.245 183.475 174.979 182.376C184.658 180.178 193.365 174.937 199.873 167.456C203.001 163.864 205.664 159.891 207.862 155.664C209.764 151.987 211.496 148.225 212.638 144.126C213.736 140.153 214.159 135.799 214.582 131.7C214.709 130.643 214.751 129.544 214.751 128.487C214.793 127.642 214.793 126.797 214.793 125.909C214.666 124.599 213.525 123.416 212.046 123.373ZM176.585 141.209C175.782 140.448 175.106 139.561 174.641 138.547C173.373 135.799 173.458 132.249 174.852 130.136C175.359 129.206 176.374 128.614 177.43 128.614C178.614 128.614 179.501 128.952 180.051 129.544C180.727 130.347 180.854 131.488 180.854 132.334C180.854 136.053 179.037 139.096 176.585 141.209ZM65.258 167.879C64.1168 168.09 62.9334 168.217 61.75 168.217C58.3688 168.217 57.1853 164.413 57.5234 162.131C57.7348 160.44 58.4956 158.834 59.6367 157.566C61.2005 156.002 63.4829 156.34 65.4271 156.594C68.2589 157.017 71.0906 157.693 73.7956 158.623C75.1059 159.045 79.7128 160.609 80.2622 160.863C75.613 163.821 70.7525 166.907 65.258 167.879Z" fill="white"/>
</g>
<defs>
<pattern id="pattern0" patternContentUnits="objectBoundingBox" width="1" height="1">
<use xlink:href="#image0_44_10038"/>
</pattern>
<linearGradient id="paint0_linear_44_10038" x1="151.403" y1="498.728" x2="97.4341" y2="-265.304" gradientUnits="userSpaceOnUse">
<stop offset="0.3" stop-color="#17936F"/>
<stop offset="0.41" stop-color="#14A073"/>
<stop offset="0.63" stop-color="#0BC27E"/>
<stop offset="0.79" stop-color="#04E087"/>
</linearGradient>
<clipPath id="clip0_44_10038">
<rect width="250" height="250" fill="white"/>
</clipPath>
<image id="image0_44_10038" xlink:href="data:image/png;base64,iVBORw0KGgoAAAANSUhEUgAAAdkAAAF9CAYAAABIyhL6AAAACXBIWXMAAAsSAAALEgHS3X78AAAg"/>
</defs>
</svg>
